src/assets/top/LongHairBob.svg

<svg width='280px' height='280px' viewBox='0 0 280 280' version='1.1' xmlns='http://www.w3.org/2000/svg'>
      <g id='Top' strokeWidth='1' fillRule='evenodd'>
        <defs>
          <rect id='path1' x='0' y='0' width='264' height='280' />
          <path
            d='M38,79.3595521 L38,111 C38,133.339168 51.0804213,152.623239 70,161.610951 L70,174.74565 C50.3625813,177.434228 34.6409914,182.163507 23.3845374,181.000327 C9.16164761,179.530612 1.49623627,150.795665 1,126 C0.382878875,95.1640258 29.3189583,30.7950013 40,18 C47.9231015,8.50878211 69.6952966,0.550643437 94.0001685,1 C118.30504,1.44935656 140.861928,6.81215989 149.000169,17 C161.324059,32.4276364 186.868727,91.0786423 187.000169,126 C187.093514,150.800049 177.46255,175.65995 164.000169,177 C152.920532,178.102871 137.475571,175.511343 118,173.997342 L118,161.610951 C136.919579,152.623239 150,133.339168 150,111 L150,82.9882378 C140.478735,78.1305678 131.863294,72.248172 124.153679,65.3410505 C127.362309,70.6368571 130.848786,75.1475352 134.61311,78.8730846 C107.596314,71.2928169 86.1055278,58.4501118 70.1407506,40.3449693 C62.1597317,56.8095313 51.4461487,69.8143919 38.0000014,79.3595511 Z'
            id='path2'
          />
        </defs>
        <mask id='mask1' fill='white'>
          <use href='#path1' />
        </mask>
        <g id='Mask' />
        <g id='Top/Long-Hair/Bob' mask='url("#mask1")'>
          <g transform='translate(-1.000000, 0.000000)'>
            <g
              id='Hair'
              strokeWidth='1'
              fillRule='evenodd'
              transform='translate(39.000000, 19.000000)'>
              <mask id='mask2' fill='white'>
                <use href='#path2' />
              </mask>
              <use class='CustomColor' fill='#E6E6E6' href='#path2' />
            </g>
          </g>
        </g>
      </g>
</svg>

<svg width="280" height="280" xmlns="http://www.w3.org/2000/svg"><defs><path id="a" d="M0 0h264v280H0z"/><path d="M38 79.36V111c0 22.34 13.08 41.623 32 50.611v13.135c-19.637 2.688-35.359 7.418-46.615 6.254C9.162 179.53 1.496 150.796 1 126 .383 95.164 29.319 30.795 40 18 47.923 8.509 69.695.55 94 1c24.305.45 46.862 5.812 55 16 12.324 15.428 37.869 74.079 38 109 .094 24.8-9.537 49.66-23 51-11.08 1.103-26.524-1.489-46-3.003v-12.386c18.92-8.988 32-28.272 32-50.611V82.988c-9.521-4.857-18.137-10.74-25.846-17.647 3.208 5.296 6.695 9.807 10.46 13.532-27.018-7.58-48.508-20.423-64.473-38.528C62.16 56.81 51.446 69.815 38 79.36z" id="c"/></defs><mask id="b" fill="#fff"><use href="#a"/></mask><g mask="url(&quot;#b&quot;)"><use class="CustomColor" fill="#E6E6E6" href="#c" transform="translate(38 19)"/></g></svg>
